X: 105
T: Laofu shaoqi
L: 1/8
M: 2/4
K: Bb
b g/ b/f2 [I:setbarnb 1]| 
f b g f | 
b g/ f/ d c | 
B2G F | 
b f b g | 
f f d c/ B/ | 
c G F B | 
F4 |]

@@@ Tune index: 8979
